X:1
T:Tartar, The
M:2/4
L:1/8
B:Thompson's Compleat Collection of 200 Favourite Country Dances, vol. 2 (London, 1765)
Z:Transcribed and edited by Flynn Titford-Mock, 2007
Z:abc's:AK/Fiddler's Companion
K:D
D2 (3Bcd) | BGAF | GABG | E2B2 | D2 (3Bcd | BGAF | defd | B2d2 :|
|: defd | ecdB | AcdF | E2B2 | DEFG | ABAF | GEAF | D2d2 :|

